icons/PaperclipDiagonal.svg

<svg width="24" height="24" viewBox="0 0 24 24" fill="none" xmlns="http://www.w3.org/2000/svg">
<path fill-rule="evenodd" clip-rule="evenodd" d="M10.9697,3.96969c1.9497,-1.94974 5.1109,-1.94974 7.0606,0.00001c1.9498,1.94974 1.9498,5.11091 0,7.0607l-5.5,5.5c-1.1213,1.1213 -2.93931,1.1213 -4.06063,0c-1.12132,-1.1214 -1.12133,-2.9394 -0.00001,-4.0607l5.50004,-5.50003c0.2929,-0.2929 0.7677,-0.2929 1.0606,0c0.2929,0.29289 0.2929,0.76776 0,1.06066l-5.49998,5.50007c-0.53553,0.5355 -0.53553,1.4038 0,1.9393c0.53558,0.5355 1.40378,0.5355 1.93938,0l5.5,-5.5c1.3639,-1.36396 1.3639,-3.57538 0,-4.93934c-1.364,-1.36396 -3.5754,-1.36397 -4.9394,-0.00001l-5.49999,5.50005c-2.19239,2.1923 -2.19239,5.7469 0,7.9393c2.19238,2.1924 5.74699,2.1924 7.93929,0l6.0001,-6c0.2929,-0.2929 0.7677,-0.2929 1.0606,0c0.2929,0.2929 0.2929,0.7677 0,1.0606l-6,6.0001c-2.7782,2.7781 -7.28248,2.7781 -10.06065,0c-2.77818,-2.7782 -2.77817,-7.2825 0,-10.0607z" fill="#002B51"/>
</svg>

<svg width="24" height="24" viewBox="0 0 24 24" fill="none" xmlns="http://www.w3.org/2000/svg">
<path fill-rule="evenodd" clip-rule="evenodd" d="M10.9697 3.96969C12.9194 2.01995 16.0806 2.01995 18.0303 3.9697C19.9801 5.91944 19.9801 9.08061 18.0303 11.0304L12.5303 16.5304C11.409 17.6517 9.59099 17.6517 8.46967 16.5304C7.34835 15.409 7.34834 13.591 8.46966 12.4697L13.9697 6.96967C14.2626 6.67677 14.7374 6.67677 15.0303 6.96967C15.3232 7.26256 15.3232 7.73743 15.0303 8.03033L9.53032 13.5304C8.99479 14.0659 8.99479 14.9342 9.53032 15.4697C10.0659 16.0052 10.9341 16.0052 11.4697 15.4697L16.9697 9.9697C18.3336 8.60574 18.3336 6.39432 16.9697 5.03036C15.6057 3.6664 13.3943 3.66639 12.0303 5.03035L6.53031 10.5304C4.33792 12.7227 4.33792 16.2773 6.53031 18.4697C8.72269 20.6621 12.2773 20.6621 14.4696 18.4697L20.4697 12.4697C20.7626 12.1768 21.2374 12.1768 21.5303 12.4697C21.8232 12.7626 21.8232 13.2374 21.5303 13.5303L15.5303 19.5304C12.7521 22.3085 8.24782 22.3085 5.46965 19.5304C2.69147 16.7522 2.69148 12.2479 5.46965 9.4697L10.9697 3.96969Z" fill="#002B51"/>
</svg>
